packages/core/src/svgs/tokens/branded/BBANK.svg

<svg width="24" height="24" viewBox="0 0 24 24" fill="none" xmlns="http://www.w3.org/2000/svg">
<path d="M4.12305 2H5.94086V14.1188H4.12305V2Z" fill="#F26122"/>
<path d="M4.12305 2H5.94086V6.24155C5.94086 6.24155 5.63789 3.51484 4.12305 2Z" fill="#F6851F"/>
<path d="M19.8774 14.1189C19.878 15.3837 19.5741 16.63 18.9912 17.7526C18.4084 18.8752 17.5638 19.8409 16.5288 20.568C15.4939 21.2953 14.2991 21.7626 13.0454 21.9304C11.7917 22.0982 10.5162 21.9616 9.32641 21.5322C8.13661 21.103 7.06774 20.3934 6.21014 19.4636C5.35254 18.5339 4.73145 17.4114 4.39937 16.1909C4.0673 14.9704 4.034 13.6879 4.30232 12.4518C4.57063 11.2158 5.13265 10.0625 5.94086 9.08951V14.1189C5.94065 15.5181 6.42477 16.8743 7.31098 17.9572C8.1972 19.0402 9.43089 19.7829 10.8026 20.0594C12.1743 20.3361 13.5995 20.1294 14.836 19.4745C16.0726 18.8196 17.0445 17.7568 17.5865 16.4668C18.1285 15.1768 18.2074 13.739 17.8096 12.3974C17.4119 11.0558 16.5621 9.89315 15.4046 9.10705C14.2469 8.3208 12.8528 7.95958 11.4592 8.08452C10.0654 8.20945 8.7579 8.81297 7.75866 9.79248V7.47775C8.94934 6.71686 10.3229 6.29029 11.7352 6.24274C13.1475 6.19519 14.5465 6.52844 15.7857 7.20752C17.025 7.88661 18.0586 8.88649 18.7786 10.1025C19.4985 11.3184 19.878 12.7057 19.8774 14.1189Z" fill="#F26122"/>
<path d="M19.877 14.1187C19.877 8.99233 13.6661 6.68985 9.47917 8.60465C8.84067 8.89986 8.25845 9.30366 7.7583 9.79822V7.48361C8.94855 6.723 10.3215 6.29646 11.7333 6.24865C13.145 6.20085 14.5437 6.53356 15.7827 7.21192C17.0218 7.89029 18.0556 8.8894 18.7759 10.1045C19.4962 11.3195 19.8765 12.7061 19.877 14.1187Z" fill="#F6851F"/>
<path fill-rule="evenodd" clip-rule="evenodd" d="M10.1825 9.27136L8.36475 10.1802V14.7247C8.36526 15.525 8.62981 16.3027 9.11731 16.9373C9.60481 17.5718 10.288 18.0279 11.0611 18.2346C11.8342 18.4413 12.6538 18.3873 13.3929 18.0808C14.1322 17.7743 14.7495 17.2323 15.1495 16.5393C15.5493 15.846 15.7094 15.0404 15.6048 14.247C15.5001 13.4537 15.1366 12.7171 14.5707 12.1512C14.0048 11.5856 13.2679 11.2223 12.4746 11.1178C11.6812 11.0135 10.8756 11.1738 10.1825 11.574V9.27136ZM10.1825 14.7247C10.1825 15.2068 10.3741 15.6693 10.715 16.0102C11.0558 16.3511 11.5183 16.5425 12.0004 16.5425C12.4824 16.5425 12.9449 16.3511 13.2858 16.0102C13.6266 15.6693 13.8182 15.2068 13.8182 14.7247C13.8182 14.2426 13.6266 13.7803 13.2858 13.4394C12.9449 13.0985 12.4824 12.9069 12.0004 12.9069C11.5183 12.9069 11.0558 13.0985 10.715 13.4394C10.3741 13.7803 10.1825 14.2426 10.1825 14.7247Z" fill="#F6851F"/>
<path d="M8.36475 10.1802L10.1825 9.27136V11.574C10.9627 11.1197 11.8844 10.9735 12.7667 11.1641C13.649 11.3547 14.4283 11.8683 14.9513 12.6039C13.7878 12.6039 12.1458 12.5434 11.0915 13.1493C9.29787 14.1855 9.05553 16.8577 9.05553 16.8577C8.60522 16.2378 8.36332 15.4909 8.36475 14.7247V10.1802Z" fill="#F26122"/>
</svg>

<svg xmlns="http://www.w3.org/2000/svg" width="24" height="24" fill="none" viewBox="0 0 24 24">
    <path fill="#F26122" d="M4.123 2h1.818v12.119H4.123z"/>
    <path fill="#F6851F" d="M4.123 2h1.818v4.242S5.638 3.515 4.123 2"/>
    <path fill="#F26122" d="M19.877 14.119a7.877 7.877 0 1 1-13.936-5.03v5.03a6.06 6.06 0 1 0 1.818-4.327V7.478a7.877 7.877 0 0 1 12.118 6.64"/>
    <path fill="#F6851F" d="M19.877 14.119c0-5.127-6.21-7.43-10.398-5.514a6.1 6.1 0 0 0-1.72 1.193V7.484a7.877 7.877 0 0 1 12.118 6.635"/>
    <path fill="#F6851F" fill-rule="evenodd" d="m10.183 9.271-1.818.91v4.544a3.636 3.636 0 1 0 1.817-3.151zm0 5.454a1.818 1.818 0 1 0 3.636 0 1.818 1.818 0 0 0-3.637 0" clip-rule="evenodd"/>
    <path fill="#F26122" d="m8.365 10.18 1.817-.909v2.303a3.617 3.617 0 0 1 4.77 1.03c-1.164 0-2.806-.06-3.86.545-1.794 1.037-2.036 3.709-2.036 3.709a3.6 3.6 0 0 1-.691-2.133z"/>
</svg>
